src/icons/symbol-key.svg

<svg width="16" height="16" viewBox="0 0 16 16" fill="none" xmlns="http://www.w3.org/2000/svg">
<path fill-rule="evenodd" clip-rule="evenodd" d="M7.22289 10.933C7.54863 11.1254 7.92163 11.2231 8.29989 11.215C8.63777 11.2218 8.97254 11.1492 9.27721 11.003C9.58188 10.8567 9.84792 10.6409 10.0539 10.373C10.5091 9.76519 10.7402 9.01867 10.7079 8.25998C10.7412 7.58622 10.5374 6.9221 10.1319 6.38298C9.93575 6.14161 9.68577 5.94957 9.402 5.82228C9.11824 5.69498 8.80858 5.63597 8.49789 5.64997C8.07522 5.64699 7.65994 5.76085 7.29789 5.97898C7.18304 6.04807 7.0749 6.12775 6.97489 6.21698V3.47498H5.98389V11.1H6.97889V10.756C7.05516 10.8217 7.13677 10.8809 7.22289 10.933ZM7.84981 6.70006C8.03598 6.62105 8.23807 6.58677 8.43989 6.59998C8.61257 6.59452 8.78404 6.63054 8.93994 6.70501C9.09583 6.77948 9.23161 6.89023 9.33589 7.02798C9.59253 7.39053 9.7184 7.82951 9.69289 8.27297C9.71972 8.79748 9.57969 9.31701 9.29289 9.75698C9.18822 9.91527 9.04546 10.0447 8.87773 10.1335C8.70999 10.2223 8.52264 10.2675 8.33289 10.265C8.14934 10.2732 7.9663 10.24 7.79734 10.1678C7.62838 10.0956 7.47784 9.98628 7.35689 9.84797C7.10152 9.55957 6.96501 9.18506 6.97489 8.79998V8.19998C6.96299 7.78332 7.10263 7.3765 7.36789 7.05498C7.49858 6.90064 7.66364 6.77908 7.84981 6.70006ZM3.28902 5.67499C2.97011 5.67933 2.65388 5.734 2.35202 5.83699C2.06417 5.92293 1.79347 6.05828 1.55202 6.23699L1.45202 6.31399V7.51399L1.87502 7.15499C2.24579 6.80478 2.73133 6.60146 3.24102 6.58299C3.36593 6.57164 3.4917 6.59147 3.60706 6.64068C3.72243 6.6899 3.82377 6.76697 3.90202 6.86499C4.0522 7.0971 4.13239 7.36754 4.13302 7.64399L2.90002 7.82499C2.39435 7.87781 1.91525 8.07772 1.52202 8.39999C1.36697 8.55181 1.24339 8.73271 1.15835 8.93235C1.07331 9.13199 1.02848 9.34644 1.02644 9.56343C1.0244 9.78042 1.06517 9.99568 1.14644 10.1969C1.2277 10.3981 1.34786 10.5813 1.50002 10.736C1.6687 10.8904 1.86622 11.01 2.08125 11.0879C2.29627 11.1659 2.52456 11.2005 2.75302 11.19C3.147 11.1931 3.53278 11.0774 3.86002 10.858C3.96153 10.7897 4.0572 10.7131 4.14602 10.629V11.073H5.08702V7.71499C5.12137 7.17422 4.9543 6.63988 4.61802 6.21499C4.44979 6.03285 4.24348 5.89003 4.01378 5.7967C3.78407 5.70336 3.53661 5.66181 3.28902 5.67499ZM4.14602 8.71599C4.16564 9.13435 4.02592 9.54459 3.75502 9.864C3.63689 10.0005 3.48998 10.1092 3.32486 10.1821C3.15973 10.2551 2.98049 10.2906 2.80002 10.286C2.69049 10.2945 2.58035 10.2812 2.47599 10.2469C2.37163 10.2125 2.27511 10.1579 2.19202 10.086C2.06079 9.93455 1.98856 9.74088 1.98856 9.54049C1.98856 9.34011 2.06079 9.14644 2.19202 8.99499C2.47322 8.82131 2.79233 8.71837 3.12202 8.69499L4.14202 8.54699L4.14602 8.71599ZM12.4588 11.0325C12.766 11.1638 13.0983 11.2261 13.4322 11.215C13.927 11.227 14.4153 11.1006 14.8422 10.85L14.9652 10.775L14.9782 10.768V9.61504L14.5322 9.93504C14.216 10.1592 13.8356 10.2747 13.4482 10.264C13.2497 10.2719 13.052 10.2342 12.8703 10.1538C12.6886 10.0733 12.5278 9.95232 12.4002 9.80004C12.1144 9.42453 11.9725 8.95911 12.0002 8.48804C11.9737 7.98732 12.1352 7.49475 12.4532 7.10704C12.5934 6.94105 12.7695 6.80914 12.9682 6.7213C13.167 6.63346 13.3831 6.592 13.6002 6.60004C13.9439 6.59844 14.2808 6.69525 14.5712 6.87904L15.0002 7.14404V5.97004L14.8312 5.89704C14.4626 5.73432 14.0641 5.6502 13.6612 5.65004C13.2999 5.63991 12.9406 5.70762 12.6078 5.84859C12.2749 5.98956 11.9763 6.20048 11.7322 6.46704C11.2261 7.02683 10.9581 7.76186 10.9852 8.51604C10.9567 9.22346 11.1955 9.91569 11.6542 10.455C11.8769 10.704 12.1516 10.9012 12.4588 11.0325Z" fill="#C5C5C5"/>
</svg>

<svg width="16" height="16" xmlns="http://www.w3.org/2000/svg"><path fill-rule="evenodd" clip-rule="evenodd" d="M7.223 10.933c.326.192.699.29 1.077.282a2.159 2.159 0 0 0 1.754-.842 3.291 3.291 0 0 0 .654-2.113 2.886 2.886 0 0 0-.576-1.877 1.99 1.99 0 0 0-1.634-.733 2.294 2.294 0 0 0-1.523.567V3.475h-.991V11.1h.995v-.344c.076.066.158.125.244.177zM7.85 6.7c.186-.079.388-.113.59-.1a1.08 1.08 0 0 1 .896.428c.257.363.382.802.357 1.245a2.485 2.485 0 0 1-.4 1.484 1.133 1.133 0 0 1-.96.508 1.224 1.224 0 0 1-.976-.417A1.522 1.522 0 0 1 6.975 8.8v-.6a1.722 1.722 0 0 1 .393-1.145c.13-.154.296-.276.482-.355zM3.289 5.675a3.03 3.03 0 0 0-.937.162 2.59 2.59 0 0 0-.8.4l-.1.077v1.2l.423-.359a2.1 2.1 0 0 1 1.366-.572.758.758 0 0 1 .661.282c.15.232.23.503.231.779L2.9 7.825a2.6 2.6 0 0 0-1.378.575 1.65 1.65 0 0 0-.022 2.336 1.737 1.737 0 0 0 1.253.454 1.96 1.96 0 0 0 1.107-.332c.102-.068.197-.145.286-.229v.444h.941V7.715a2.193 2.193 0 0 0-.469-1.5 1.687 1.687 0 0 0-1.329-.54zm.857 3.041c.02.418-.12.829-.391 1.148a1.221 1.221 0 0 1-.955.422.832.832 0 0 1-.608-.2.833.833 0 0 1 0-1.091c.281-.174.6-.277.93-.3l1.02-.148.004.169zm8.313 2.317c.307.13.64.193.973.182.495.012.983-.114 1.41-.365l.123-.075.013-.007V9.615l-.446.32c-.316.224-.696.34-1.084.329A1.3 1.3 0 0 1 12.4 9.8a1.975 1.975 0 0 1-.4-1.312 2.01 2.01 0 0 1 .453-1.381A1.432 1.432 0 0 1 13.6 6.6a1.8 1.8 0 0 1 .971.279l.43.265V5.97l-.17-.073a2.9 2.9 0 0 0-1.17-.247 2.52 2.52 0 0 0-1.929.817 2.9 2.9 0 0 0-.747 2.049c-.028.707.21 1.4.67 1.939.222.249.497.446.804.578z"/></svg>
